X: 34302
T: Restless Boy, The
R: jig
M: 6/8
K: Gmajor
A|BGG Add|BGG ADD|BGG ADD|GBG FED|
BGG AFF|BAG ABc|dge f2d|cAF G2:|
D|:GBd g2e|fed cAF|GBd g3|f/g/af g3|
f/g/af g2 e|fed cAG|B3 BAG|B/c/dB cBA:|
GBB B2 d|cAA AFD|GBB BAG|B/c/dB cBA|
GBB B2 d|cAA ABc|dge f2d|cAF G3:|

